.local/share/icons/Gruvbox-Plus-Dark/panel/24/network-wireless-offline.svg

<svg width="24" height="24" version="1.1" xmlns="http://www.w3.org/2000/svg">
  <defs>
    <style id="current-color-scheme" type="text/css">.ColorScheme-Text { color:#ebdbb2; } .ColorScheme-Highlight { color:#458588; } .ColorScheme-NeutralText { color:#fe8019; } .ColorScheme-PositiveText { color:#689d6a; } .ColorScheme-NegativeText { color:#fb4934; }</style>
  </defs>
  <path class="ColorScheme-Text" d="m15 15v1c0 0.28 0.1 0.54 0.28 0.72l0.78 0.78-0.78 0.78c-0.18 0.19-0.28 0.45-0.28 0.72v1h1c0.28 0 0.54-0.1 0.72-0.28l0.78-0.78 0.78 0.78c0.18 0.18 0.45 0.28 0.72 0.28h1v-1c0-0.27-0.1-0.53-0.28-0.72l-0.78-0.78 0.78-0.78c0.18-0.18 0.28-0.44 0.28-0.72v-1h-1c-0.27 0-0.54 0.1-0.72 0.28l-0.78 0.79-0.78-0.79c-0.18-0.18-0.44-0.28-0.72-0.28z" fill="currentColor"/>
  <path class="ColorScheme-Text" d="m12 4.998c-3.377 0-6.431 1.351-9 3.242l9 10.76 2-2.387v-2.615h2.191l4.809-5.738c-2.572-1.898-5.618-3.26-9-3.26z" fill="currentColor" opacity=".3"/>
</svg>

<svg xmlns="http://www.w3.org/2000/svg" width="24" height="24" version="1.1">
 <defs>
  <style id="current-color-scheme" type="text/css">
   .ColorScheme-Text { color:#ebdbb2; } .ColorScheme-Highlight { color:#458588; }
  </style>
 </defs>
 <path style="fill:currentColor" class="ColorScheme-Text" d="m 15,15 v 1 c 0,0.28 0.1,0.54 0.28,0.72 l 0.78,0.78 -0.78,0.78 C 15.1,18.47 15,18.73 15,19 v 1 h 1 c 0.28,0 0.54,-0.1 0.72,-0.28 l 0.78,-0.78 0.78,0.78 C 18.46,19.9 18.73,20 19,20 h 1 v -1 c 0,-0.27 -0.1,-0.53 -0.28,-0.72 L 18.94,17.5 19.72,16.72 C 19.9,16.54 20,16.28 20,16 v -1 h -1 c -0.27,0 -0.54,0.1 -0.72,0.28 L 17.5,16.07 16.72,15.28 C 16.54,15.1 16.28,15 16,15 Z"/>
 <path style="opacity:0.3;fill:currentColor" class="ColorScheme-Text" d="M 12,5 C 8.9494,5 6.0806,6.0732 4,8 l 8,11 2.019531,-2.777344 C 14.011891,16.148415 14,16.074553 14,16 v -1 -1 h 1.636719 L 20,8 C 17.919,6.0731 15.051,5 12,5 Z"/>
</svg>
